src/assets/imgs/ico_kaipan_time.svg

<?xml version="1.0" encoding="UTF-8"?>
<svg width="14px" height="14px" viewBox="0 0 14 14" version="1.1" xmlns="http://www.w3.org/2000/svg" xmlns:xlink="http://www.w3.org/1999/xlink">
    <title>ico_kaipan_time</title>
    <g id="页面-1" stroke="none" stroke-width="1" fill="none" fill-rule="evenodd">
        <g id="1-分享主页" transform="translate(-65.000000, -1712.000000)">
            <g id="编组-6备份-3" transform="translate(10.000000, 1599.000000)">
                <g id="编组-9" transform="translate(16.000000, 62.000000)">
                    <g id="编组" transform="translate(39.000000, 51.000000)">
                        <rect id="矩形" x="0" y="0" width="14" height="14"></rect>
                        <path d="M6.99814967,1.01393914 C3.69025493,1.01393914 1.01393914,3.69025493 1.01393914,6.99814967 C1.01393914,10.3060444 3.69025493,12.9823602 6.99814967,12.9823602 C10.3060444,12.9823602 12.9823602,10.3060444 12.9823602,6.99814967 C12.9823602,3.69025493 10.3060444,1.01393914 6.99814967,1.01393914 Z M9.99025493,7.66130757 L6.81657072,7.66130757 C6.74551809,7.66130757 6.6823602,7.64551809 6.62709704,7.62183388 C6.45341283,7.55078125 6.32709704,7.3692023 6.32709704,7.17183388 L6.32709704,3.99025493 C6.32709704,3.72183388 6.54814967,3.50078125 6.81657072,3.50078125 C7.08499178,3.50078125 7.30604441,3.72183388 7.30604441,3.99025493 L7.30604441,6.67446546 L9.99025493,6.67446546 C10.258676,6.67446546 10.4797286,6.89551809 10.4797286,7.16393914 C10.4797286,7.44025493 10.2665707,7.66130757 9.99025493,7.66130757 Z" id="形状" fill="#0072FF" fill-rule="nonzero"></path>
                    </g>
                </g>
            </g>
        </g>
    </g>
</svg>

<svg width="14" height="14" xmlns="http://www.w3.org/2000/svg"><g fill="none" fill-rule="evenodd"><path d="M0 0h14v14H0z"/><path d="M6.998 1.014a5.98 5.98 0 00-5.984 5.984 5.98 5.98 0 005.984 5.984 5.98 5.98 0 005.984-5.984 5.98 5.98 0 00-5.984-5.984zM9.99 7.66H6.817a.495.495 0 01-.49-.49v-3.18c0-.27.221-.49.49-.49.268 0 .489.22.489.49v2.683H9.99c.269 0 .49.222.49.49a.489.489 0 01-.49.497z" fill="#0072FF" fill-rule="nonzero"/></g></svg>
